X:17618
T:Ton Ruban Bleu - bourree
C:traditionell
Z:abc transcription Simon Wascher
N:please mail errors to: simon.wascher@chello.at
M:2/4
L:1/8
K:G
d2 BG|F3/2G/2 AB|c2 AF|G3/2A/2 Bc|
d2 BG|F3/2G/2 AB|c2 AF|G4:|
|:F3/2A/2 FA|G3/2B/2 GB|A3/2c/2 Ac|B2 G2|
F3/2A/2 FA|G3/2B/2 GB|d3/2c/2 BA|1d3G:|2G4:|]
